X: 1
T: Bedford Cross
M: 12/8
L: 1/8
R: slide
K: Amaj
e3 ede f2e d2f | edB d2B A2B d3 | e3 ede f2e d2f |
[1 edB d2B A3 ABd :|2 edB d2B A3 A2 ||
a | a2e ede f2e d2f | edB d2B A2B d2a | a2e ede f2e d2f |
[1 edB d2B A3 A2 :|2 edB d2B A3 ABd |]
